X:1
T:James Gibb editions
T:Jesu, Rex admirabilis - Franz
T:#
%%score [ 1 2 3 ]
L:1/8
Q:1/4=60
M:4/4
K:G
V:1 treble nm="Alto" snm="A"
V:2 treble-8 nm="Tenor" snm="T"
V:3 bass nm="Bass" snm="B"
V:1
"^sostenuto""^Jesu, Rex admirabilis""^Vittorio Franz\n (1859-1931)"!pp! (D4 G2)!<(! E2 | %1
w: Je\- * su,|
 (DB,)!<)!CD E3 E | D2 z2 z2 z2 |[M:4/4] B,2 DD G2 F2 | (ED^C)E D4 |"^dolce" D2 DD G2 E2 | %6
w: Rex * ad- mi- ra- bi-|lis|et tri- um- pha- tor|no\- * * bi- lis,|dul- ce- do in- ef-|
 D>B, D2 E2 F2 |!<(! G2 G2!<)!!>(! (GF)GA!>)! | (D2 G3 F/E/) F2 | !fermata!G8 |] %10
w: fa- bi- lis to- tus,|to- tus de\- * si- de-|ra\- * * * bi-|lis.|
V:2
!pp! B6!<(! c2 | (BG)!<)!AB c3 c | BGAB A2 (GA) |[M:4/4][K:treble-8] B2 AA (B^c) d2 | (^cBA)G F4 | %5
w: Je- su,|Rex * ad- mi- ra- bi-|lis et tri- um- pha- tor, *|et tri- um- pha\- * tor|no\- * * bi- lis,|
 B2 BB B2 =c2 | B>G B2 c2 c2 |!<(! (d>B) d2!<)!!>(! c2 cc!>)! | (B2 cB A3) A | !fermata!B8 |] %10
w: dul- ce- do in- ef-|fa- bi- lis to- tus,|to\- * tus de- si- de-|ra\- * * * bi-|lis.|
V:3
!pp! G,6!<(! G,2 | G,2!<)! G,G, (C,D,E,)F, | G,2 z2 z D,E,F, |[M:4/4] (G,2 F,2 E,2) D,2 | %4
w: Je- su,|Rex ad- mi- ra\- * * bi-|lis et tri- um-|pha\- * * tor|
 A,3 A, D,4 | z8 | G,2 G,G, C2 A,2 |!<(! B,>G, B,2!<)!!>(! A,2 G,F,!>)! | (G,F,E,D, C,2) D,2 | %9
w: no- bi- lis,||to- tus de- si- de-|ra- bi- lis, de- si- de-|ra\- * * * * bi-|
 !fermata!G,8 |] %10
w: lis.|

